X:469
T:Fred Finn's
T:Berkshire Heights, The
R:reel
D:Music at Matt Molloy's
D:Paul Brady & Andy Irvine
Z:id:hn-reel-469
M:C|
K:D
~A3F ABde|fdec d2cA|BE~E2 ~G3B|AF~F2 EFDF|
~A3F ABde|fdec d2cA|BGGB ABde|1 f2eg fddB:|2 f2eg fdde||
|:fdad bdaf|dfaf fede|fbba b2ba|fbaf feeg|
fdad bdaf|dfaf fedB|~A3F ABde|1 f2eg fdde:|2 f2eg fddB||
